X:1
T: The American Rifle Team
C:
R:Reel
I:speed 232
Q:232
K:D
M:4/4
L:1/8
|:A2|de dB AD FA|df ec d2 ef|gb ag fa gf|ea fd ed Bc|
de dB AD FA|df ec d2 ef|gb ag fa gf|1eA Bc d2:|2eA Bc d2|
|:z2|d'a fd' c'a ec'|bg db af da|ge Bg fd Af|eA ce ga c'e'|
d'a fd' c'a ec'|bg db af da|ge Bg fd Af|1ea ce d2:|2ea ce d2||
